flaticon/essential/map-2.svg

<svg xmlns="http://www.w3.org/2000/svg" width="32" height="32" viewBox="0 0 24 24">
    <path d="M 23.769531 4.636719 L 17.769531 1.835938 C 17.761719 1.832031 17.757812 1.832031 17.75 1.832031 C 17.734375 1.824219 17.714844 1.820312 17.699219 1.8125 C 17.683594 1.808594 17.671875 1.808594 17.65625 1.804688 C 17.636719 1.800781 17.621094 1.800781 17.601562 1.800781 C 17.585938 1.800781 17.574219 1.800781 17.558594 1.804688 C 17.539062 1.804688 17.523438 1.808594 17.507812 1.8125 C 17.492188 1.816406 17.476562 1.820312 17.460938 1.828125 C 17.453125 1.828125 17.449219 1.828125 17.441406 1.832031 L 12 4.164062 L 6.558594 1.832031 C 6.554688 1.828125 6.550781 1.828125 6.546875 1.828125 C 6.53125 1.820312 6.515625 1.816406 6.496094 1.8125 C 6.484375 1.808594 6.46875 1.804688 6.453125 1.804688 C 6.433594 1.800781 6.417969 1.800781 6.402344 1.800781 C 6.386719 1.800781 6.371094 1.800781 6.355469 1.800781 C 6.339844 1.804688 6.320312 1.808594 6.304688 1.8125 C 6.289062 1.816406 6.277344 1.820312 6.261719 1.824219 C 6.257812 1.824219 6.253906 1.824219 6.25 1.828125 L 0.25 4.226562 C 0.0976562 4.289062 0 4.433594 0 4.597656 L 0 21.796875 C 0 21.929688 0.0664062 22.054688 0.175781 22.128906 C 0.242188 22.175781 0.320312 22.199219 0.398438 22.199219 C 0.449219 22.199219 0.5 22.191406 0.546875 22.171875 L 6.394531 19.832031 L 11.84375 22.167969 C 11.847656 22.167969 11.855469 22.167969 11.859375 22.171875 C 11.90625 22.1875 11.953125 22.199219 12 22.199219 C 12.046875 22.199219 12.09375 22.1875 12.140625 22.171875 C 12.144531 22.167969 12.152344 22.167969 12.15625 22.167969 L 17.605469 19.832031 L 23.453125 22.171875 C 23.5 22.191406 23.550781 22.199219 23.601562 22.199219 C 23.679688 22.199219 23.757812 22.175781 23.824219 22.128906 C 23.933594 22.054688 24 21.929688 24 21.796875 L 24 5 C 24 4.84375 23.910156 4.703125 23.769531 4.636719 Z M 0.800781 4.871094 L 6 2.789062 L 6 19.128906 L 0.800781 21.207031 Z M 6.800781 2.804688 L 11.601562 4.863281 L 11.601562 21.191406 L 6.800781 19.136719 Z M 12.398438 4.863281 L 17.199219 2.804688 L 17.199219 19.136719 L 12.398438 21.191406 Z M 23.199219 21.207031 L 18 19.128906 L 18 2.828125 L 23.199219 5.253906 Z M 23.199219 21.207031"/>
</svg>

<svg xmlns="http://www.w3.org/2000/svg" width="32" height="32" viewBox="0 0 24 24">
    <path d="M23.77 4.637l-6-2.801c-.008-.004-.012-.004-.02-.004-.016-.008-.035-.012-.05-.02-.016-.003-.028-.003-.044-.007-.02-.004-.035-.004-.054-.004-.016 0-.028 0-.043.004-.02 0-.036.004-.051.008-.016.003-.031.007-.047.015-.008 0-.012 0-.02.004L12 4.164 6.559 1.832c-.004-.004-.008-.004-.012-.004a.193.193 0 0 0-.05-.016.14.14 0 0 0-.044-.007c-.02-.004-.035-.004-.05-.004h-.048l-.05.012c-.016.003-.028.007-.043.011-.004 0-.008 0-.012.004l-6 2.399a.399.399 0 0 0-.25.37v17.2a.402.402 0 0 0 .547.375l5.848-2.34 5.449 2.336a.449.449 0 0 0 .156.031.449.449 0 0 0 .14-.027c.005-.004.012-.004.016-.004l5.45-2.336 5.847 2.34c.047.02.098.027.149.027a.402.402 0 0 0 .398-.402V5a.401.401 0 0 0-.23-.363zM.8 4.87L6 2.79v16.34L.8 21.207zm6-2.066l4.802 2.058v16.328L6.8 19.137zm5.598 2.058L17.2 2.805v16.332l-4.8 2.054zM23.2 21.207L18 19.129v-16.3l5.2 2.425zm0 0"/>
</svg>
